src/actions/22/appointment-new.svg

<svg xmlns="http://www.w3.org/2000/svg" xmlns:xlink="http://www.w3.org/1999/xlink" width="22" height="22" viewBox="0 0 22 22" version="1.1">
<g id="surface1">
<path style=" stroke:none;fill-rule:nonzero;fill:rgb(18.039216%,20.392157%,25.098041%);fill-opacity:1;" d="M 9.625 5.5 L 9.625 12.375 L 16.5 12.375 L 16.5 11 L 11 11 L 11 5.5 Z M 9.625 5.5 "/>
<path style=" stroke:none;fill-rule:nonzero;fill:rgb(18.039216%,20.392157%,25.098041%);fill-opacity:1;" d="M 11 0 C 4.925781 0 0 4.925781 0 11 C 0 17.074219 4.925781 22 11 22 C 12.265625 21.992188 13.519531 21.765625 14.707031 21.328125 C 14.242188 21.046875 13.824219 20.691406 13.480469 20.273438 C 12.671875 20.496094 11.839844 20.617188 11 20.625 C 5.683594 20.625 1.375 16.316406 1.375 11 C 1.375 5.683594 5.683594 1.375 11 1.375 C 16.316406 1.375 20.625 5.683594 20.625 11 C 20.617188 11.839844 20.496094 12.671875 20.273438 13.480469 C 20.691406 13.824219 21.046875 14.242188 21.328125 14.707031 C 21.765625 13.519531 21.992188 12.265625 22 11 C 22 4.925781 17.074219 0 11 0 Z M 11 0 "/>
<path style=" stroke:none;fill-rule:nonzero;fill:rgb(18.039216%,20.392157%,25.098041%);fill-opacity:1;" d="M 17.191406 13.449219 C 15.125 13.449219 13.449219 15.125 13.449219 17.191406 C 13.449219 19.261719 15.125 20.9375 17.191406 20.9375 C 19.257812 20.9375 20.9375 19.261719 20.9375 17.191406 C 20.9375 15.125 19.257812 13.449219 17.191406 13.449219 Z M 16.65625 14.519531 L 17.726562 14.519531 L 17.726562 16.65625 L 19.867188 16.65625 L 19.867188 17.726562 L 17.726562 17.726562 L 17.726562 19.867188 L 16.65625 19.867188 L 16.65625 17.726562 L 14.519531 17.726562 L 14.519531 16.65625 L 16.65625 16.65625 Z M 16.65625 14.519531 "/>
</g>
</svg>

<svg width="22" height="22" version="1.1" viewBox="0 0 22 22" xmlns="http://www.w3.org/2000/svg">
 <g fill="#2e3440">
  <path d="m9.625 5.5v6.875h6.875v-1.375h-5.5v-5.5z"/>
  <path d="m11 0c-6.0742 0-11 4.9258-11 11s4.9258 11 11 11c1.2656-0.007812 2.5195-0.23438 3.707-0.67188-0.46484-0.28125-0.88281-0.63672-1.2266-1.0547-0.80859 0.22266-1.6406 0.34375-2.4805 0.35156-5.3164 0-9.625-4.3086-9.625-9.625s4.3086-9.625 9.625-9.625 9.625 4.3086 9.625 9.625c-0.007812 0.83984-0.12891 1.6719-0.35156 2.4805 0.41797 0.34375 0.77344 0.76172 1.0547 1.2266 0.4375-1.1875 0.66406-2.4414 0.67188-3.707 0-6.0742-4.9258-11-11-11z"/>
  <path d="m17.191 13.449c-2.0664 0-3.7422 1.6758-3.7422 3.7422 0 2.0703 1.6758 3.7461 3.7422 3.7461s3.7461-1.6758 3.7461-3.7461c0-2.0664-1.6797-3.7422-3.7461-3.7422zm-0.53516 1.0703h1.0703v2.1367h2.1406v1.0703h-2.1406v2.1406h-1.0703v-2.1406h-2.1367v-1.0703h2.1367z"/>
 </g>
</svg>
